src/images/pages/trade-explanation/zh_cn/down.svg

<svg width="301" height="201" xmlns="http://www.w3.org/2000/svg"><g transform="translate(2 2)" fill="none" fill-rule="evenodd"><path stroke="#C2C2C2" stroke-width="2.448" fill="#F1F2F2" d="M.215.214h297.456V197.42H.215z"/><path d="M.14 32.867h297.455" stroke="#C2C2C2" stroke-width="2.448"/><path d="M2.266 54.673h293.202M2.266 75.266h293.202M2.266 95.821h293.202M2.266 136.97h293.202M2.266 157.525h293.202M2.266 178.08h293.202M37.658 34.118v162.09M74.76 34.118v162.09m37.102-162.09v162.09m37.101-162.09v162.09m37.063-162.09v162.09m37.102-162.09v162.09m37.1-162.09v162.09" stroke="#DFDEDE" stroke-width="1.224"/><path d="M2.266 116.376h293.202" stroke="#2A3052" stroke-width="1.224" stroke-linejoin="round"/><path stroke="#2A3052" stroke-width="3.672" stroke-linecap="round" stroke-linejoin="round" d="M37.924 116.376l34.025 24.765 35.203-39.024 33.607 36.142 45.266-44.334 43.785 90.26 30.418-26.66"/><path d="M187.507 147.305h-35.393L146.646 139l-5.468 8.305h-35.393a4.81 4.81 0 0 0-3.404 1.434 4.798 4.798 0 0 0-1.38 3.42v25.069a4.798 4.798 0 0 0 1.38 3.421 4.81 4.81 0 0 0 3.404 1.433h81.684a4.81 4.81 0 0 0 3.403-1.433 4.798 4.798 0 0 0 1.381-3.421V152.16a4.82 4.82 0 0 0-4.746-4.855z" fill="#E88024"/><ellipse cx="8.544" cy="9.188" rx="8.203" ry="8.571" opacity=".6" transform="translate(29.38 107.189)" fill="#FFF"/><ellipse stroke="#E88024" stroke-width="2.448" cx="37.924" cy="116.376" rx="8.203" ry="8.571"/><ellipse cx="8.595" cy="9.012" rx="8.203" ry="8.571" opacity=".6" transform="translate(251.633 147.906)" fill="#FFF"/><ellipse stroke="#E88024" stroke-width="2.448" cx="260.228" cy="156.918" rx="8.203" ry="8.571"/><path d="M21.092 11.954h4.606v4.76h-1.33v1.82h1.428v1.372h-1.428v1.974c.476-.14.938-.294 1.386-.434v1.456c-1.428.476-3.08.924-4.928 1.33l-.42-1.4.602-.126v-4.802h1.288v4.522c.252-.056.49-.112.714-.168v-5.544h-1.918v-4.76zm3.22 3.416v-2.072h-1.82v2.072h1.82zm3.542-.098c-.196.7-.42 1.33-.672 1.918l-1.204-.756c.574-1.288.98-2.66 1.232-4.102l1.246.266c-.084.448-.154.868-.238 1.274h.91v-2.324H30.5v2.324h2.1v1.4h-2.114a34.075 34.075 0 0 1-.182 2.296h2.828v1.414h-2.408c.35 1.806 1.302 3.22 2.842 4.242l-.812 1.302a8.292 8.292 0 0 1-2.996-4.354c-.112.336-.224.644-.336.938-.644 1.456-1.666 2.576-3.094 3.36l-.742-1.176c1.372-.84 2.296-1.904 2.772-3.164.112-.364.224-.742.322-1.148h-2.534v-1.414h2.786c.084-.714.154-1.484.182-2.296h-1.26z" fill="#000" fill-rule="nonzero"/><path d="M25.568 143.402h10.906v.98h-2.338v3.71h3.066v.966h-3.066v6.202h-1.022v-6.202h-4.046c-.126 1.442-.392 2.632-.812 3.584-.532 1.176-1.414 2.086-2.646 2.73l-.546-.868c1.134-.644 1.932-1.498 2.38-2.562.294-.812.49-1.764.602-2.884h-3.234v-.966h3.29c0-.182.014-.35.014-.49v-3.22h-2.548v-.98zm3.584.98v3.22c0 .168-.014.336-.014.49h3.976v-3.71h-3.962zm11.144-1.876l.994.084a120.1 120.1 0 0 1-.378 2.646h2.072v.588c-.112 2.268-.504 4.214-1.176 5.866.658.686 1.204 1.302 1.624 1.862l-.672.784a21.617 21.617 0 0 0-1.4-1.666c-.56 1.064-1.246 1.988-2.086 2.772l-.63-.798a9.204 9.204 0 0 0 2.03-2.716 73.777 73.777 0 0 0-1.806-1.778c.336-1.218.63-2.534.882-3.948h-1.12v-.966h1.288c.14-.882.266-1.792.378-2.73zm.798 8.456c.532-1.4.84-2.982.938-4.76h-1.274c-.266 1.47-.532 2.688-.812 3.654.406.378.784.742 1.148 1.106zm9.282-1.512v5.964h-.966v-.84h-4.284v.84h-.966v-5.964h6.216zm-5.25 4.172h4.284v-3.248h-4.284v3.248zm-1.512-5.432l-.154-.91c.812-.42 1.82-1.988 3.024-4.732l.952.322c-.84 1.82-1.666 3.262-2.506 4.34a47.68 47.68 0 0 0 4.48-.49 26.867 26.867 0 0 0-1.19-2.128l.868-.42a35.347 35.347 0 0 1 2.17 4.046l-.938.448c-.168-.378-.322-.742-.49-1.092a77.818 77.818 0 0 1-6.216.616zM251.768 186.6v.952c-1.428.518-3.038.938-4.858 1.274l-.126-.98c1.904-.308 3.556-.728 4.984-1.246zm-2.59-10.08l.938.364c-.714 1.82-1.442 3.276-2.17 4.368a52.484 52.484 0 0 0 1.988-.294c.266-.504.546-1.022.826-1.554l.882.322c-1.274 2.366-2.338 4.046-3.192 5.054a24.89 24.89 0 0 0 3.15-.84v.896c-1.512.518-2.968.868-4.368 1.05l-.266-.91c.182-.084.336-.182.462-.294.532-.546 1.19-1.47 1.974-2.786-.798.126-1.596.238-2.408.35l-.252-.924c.154-.07.294-.196.42-.378.784-1.288 1.456-2.758 2.016-4.424zm2.422 1.778h3.346v-1.694h1.022v1.694h3.332v.98h-3.332v2.072h2.926v.98h-6.832v-.98h2.884v-2.072H251.6v-.98zm6.888 5.432v5.628h-.98v-.672h-4.004v.672h-.994v-5.628h5.978zm-4.984 4.004h4.004v-3.052h-4.004v3.052zm7.504-9.73h5.474v-1.4h1.036v1.4h5.446v.966h-5.446v1.372h4.41v3.962h-3.556c1.008 1.428 2.716 2.688 5.096 3.808l-.686.868c-2.478-1.386-4.214-2.94-5.222-4.676h-.042v5.082h-1.036v-5.082h-.042c-1.064 1.904-2.828 3.472-5.306 4.704l-.588-.924c2.324-.98 4.018-2.24 5.068-3.78H262.1v-3.962h4.382v-1.372h-5.474v-.966zm9.912 5.376v-2.086h-3.402v2.086h3.402zm-4.438 0v-2.086h-3.374v2.086h3.374z" fill="#2A3052" fill-rule="nonzero"/><path d="M149.75 163.948v6.666h-1.584v-4.994h-2.618v4.95h-1.606v-6.622h5.808zm-2.838 7.876l-.132.264c-.462.88-1.21 1.54-2.244 2.002l-.924-1.43c.946-.44 1.584-.99 1.936-1.628.33-.704.528-1.606.572-2.706v-1.892h1.452v1.892a12.51 12.51 0 0 1-.198 1.958c.77.66 1.43 1.32 1.98 1.98l-1.166 1.188a13.248 13.248 0 0 0-1.276-1.628zm-9.746-16.698h8.756a8.727 8.727 0 0 0-.572-1.012l2.31-.396c.154.418.308.88.44 1.408h8.734v1.584h-15.818v.726h14.41v1.518h-16.522v-2.244h-1.738v-1.584zm2.354 4.488h14.894v3.586H139.52v-3.586zm12.65 2.156v-.726h-10.406v.726h10.406zm-12.408 6.424a18.77 18.77 0 0 1-.088 1.188h1.892v-1.188h-1.804zm1.804-1.386v-1.166h-1.782v1.166h1.782zm-2.09 3.96c-.264 1.386-.726 2.574-1.342 3.586l-1.408-1.276c.836-1.408 1.276-3.168 1.298-5.324v-3.784h5.28v8.646c0 1.056-.616 1.606-1.826 1.606h-.814l-.484-1.672c.264.044.528.088.77.088.396 0 .616-.22.616-.638v-1.232h-2.09zm16.456 3.234h-.902c-.902 0-1.342-.462-1.342-1.364v-2.464l-.946.44c-.22-.836-.44-1.606-.682-2.266-.044 1.386-.132 2.464-.308 3.234-.242.88-.748 1.826-1.518 2.816l-1.364-1.21c.638-.77 1.056-1.474 1.254-2.112.198-.682.308-1.782.308-3.322v-3.806h4.928v8.14c0 .198.088.308.286.308h.022c.066 0 .132-.11.198-.286.044-.176.066-.836.11-1.958l1.43.506c-.132 1.496-.286 2.442-.462 2.816-.198.352-.528.528-1.012.528zm-3.872-6.27l.88-.308c.286.66.528 1.364.748 2.09v-3.828h-1.628v2.046z" fill="#FFF" fill-rule="nonzero"/><path d="M257.032 125.784v10.404h-.864v-.78h-6.312v.804h-.876v-10.428h8.052zm-7.176 8.784h6.312v-2.256h-6.312v2.256zm0-3.048h6.312v-2.112h-6.312v2.112zm0-2.904h6.312v-1.992h-6.312v1.992zm11.436-3.384h.852v2.268h1.392v.828h-1.392v.924c.588.6 1.176 1.272 1.764 2.004l-.492.732a25.109 25.109 0 0 0-1.272-1.812v6.012h-.852v-5.976a14.173 14.173 0 0 1-1.476 3.096l-.372-.936c.864-1.176 1.476-2.532 1.848-4.044h-1.464v-.828h1.464v-2.268zm3.54 5.424l.792.18c-.384 1.68-.948 3.12-1.668 4.344l-.744-.48a13.228 13.228 0 0 0 1.62-4.044zm4.344-.06a36.176 36.176 0 0 1 1.296 4.344l-.78.348c-.396-1.668-.828-3.144-1.296-4.44l.78-.252zm-2.688 5.472h-1.224l-.168-.804c.384.024.744.048 1.092.048.324 0 .492-.18.492-.528v-5.124h-2.928v-.828h6.732v.828h-2.94V135c0 .708-.36 1.068-1.056 1.068zm-2.1-10.152h5.472v.816h-5.472v-.816z" fill="#6D6E71" fill-rule="nonzero"/></g></svg>

<?xml version="1.0" encoding="UTF-8"?>
<svg width="301px" height="201px" viewBox="0 0 301 201" version="1.1" xmlns="http://www.w3.org/2000/svg" xmlns:xlink="http://www.w3.org/1999/xlink">
    <!-- Generator: Sketch 52.3 (67297) - http://www.bohemiancoding.com/sketch -->
    <title>Simplified Chinese down</title>
    <desc>Created with Sketch.</desc>
    <g id="Simplified-Chinese-down" stroke="none" stroke-width="1" fill="none" fill-rule="evenodd">
        <g transform="translate(2.000000, 2.000000)">
            <polygon id="Path" stroke="#C2C2C2" stroke-width="2.44822785" fill="#F1F2F2" points="0.215189873 0.213584906 297.670886 0.213584906 297.670886 197.421132 0.215189873 197.421132"></polygon>
            <path d="M0.139240506,32.8666038 L297.594937,32.8666038" id="Path" stroke="#C2C2C2" stroke-width="2.44822785"></path>
            <path d="M2.26582278,54.6732075 L295.468354,54.6732075 M2.26582278,75.2662264 L295.468354,75.2662264 M2.26582278,95.8213208 L295.468354,95.8213208 M2.26582278,136.969434 L295.468354,136.969434 M2.26582278,157.524528 L295.468354,157.524528 M2.26582278,178.079623 L295.468354,178.079623 M37.6582278,34.1181132 L37.6582278,196.207547 M74.7594937,34.1181132 L74.7594937,196.207547 M111.860759,34.1181132 L111.860759,196.207547 M148.962025,34.1181132 L148.962025,196.207547 M186.025316,34.1181132 L186.025316,196.207547 M223.126582,34.1181132 L223.126582,196.207547 M260.227848,34.1181132 L260.227848,196.207547" id="Shape" stroke="#DFDEDE" stroke-width="1.22392405"></path>
            <path d="M2.26582278,116.376415 L295.468354,116.376415" id="Path" stroke="#2A3052" stroke-width="1.22392405" stroke-linejoin="round"></path>
            <polyline id="Path" stroke="#2A3052" stroke-width="3.6721519" stroke-linecap="round" stroke-linejoin="round" points="37.9240506 116.376415 71.9493671 141.141132 107.151899 102.116792 140.759494 138.258868 186.025316 93.9250943 229.810127 184.185472 260.227848 157.524528"></polyline>
            <path d="M187.506624,147.305471 L152.114219,147.305471 L146.645865,139 L141.17751,147.305471 L105.785105,147.305471 C104.504741,147.311453 103.279659,147.827248 102.381451,148.738508 C101.483244,149.649767 100.986122,150.881202 101.000295,152.159811 L101.000295,177.227924 C100.986122,178.506533 101.483244,179.737968 102.381451,180.649228 C103.279659,181.560487 104.504741,182.076282 105.785105,182.082264 L187.468649,182.082264 C188.749014,182.076282 189.974096,181.560487 190.872304,180.649228 C191.770511,179.737968 192.267633,178.506533 192.25346,177.227924 L192.25346,152.159811 C192.274645,149.514371 190.155321,147.347049 187.506624,147.305471 Z" id="Path" fill="#E88024"></path>
            <g id="Group" opacity="0.6" transform="translate(29.379747, 107.188679)" fill="#FFFFFF">
                <ellipse id="Oval" cx="8.5443038" cy="9.1877358" rx="8.20253165" ry="8.5709434"></ellipse>
            </g>
            <ellipse id="Oval" stroke="#E88024" stroke-width="2.44822785" cx="37.9240506" cy="116.376415" rx="8.20253165" ry="8.5709434"></ellipse>
            <g id="Group" opacity="0.6" transform="translate(251.632911, 147.905660)" fill="#FFFFFF">
                <ellipse id="Oval" cx="8.5949367" cy="9.0120755" rx="8.20253165" ry="8.5709434"></ellipse>
            </g>
            <ellipse id="Oval" stroke="#E88024" stroke-width="2.44822785" cx="260.227848" cy="156.917736" rx="8.20253165" ry="8.5709434"></ellipse>
            <path d="M21.092,11.954 L25.698,11.954 L25.698,16.714 L24.368,16.714 L24.368,18.534 L25.796,18.534 L25.796,19.906 L24.368,19.906 L24.368,21.88 C24.844,21.74 25.306,21.586 25.754,21.446 L25.754,22.902 C24.326,23.378 22.674,23.826 20.826,24.232 L20.406,22.832 L21.008,22.706 L21.008,17.904 L22.296,17.904 L22.296,22.426 C22.548,22.37 22.786,22.314 23.01,22.258 L23.01,16.714 L21.092,16.714 L21.092,11.954 Z M24.312,15.37 L24.312,13.298 L22.492,13.298 L22.492,15.37 L24.312,15.37 Z M27.854,15.272 C27.658,15.972 27.434,16.602 27.182,17.19 L25.978,16.434 C26.552,15.146 26.958,13.774 27.21,12.332 L28.456,12.598 C28.372,13.046 28.302,13.466 28.218,13.872 L29.128,13.872 L29.128,11.548 L30.5,11.548 L30.5,13.872 L32.6,13.872 L32.6,15.272 L30.486,15.272 C30.444,16.098 30.388,16.868 30.304,17.568 L33.132,17.568 L33.132,18.982 L30.724,18.982 C31.074,20.788 32.026,22.202 33.566,23.224 L32.754,24.526 C31.27,23.392 30.276,21.936 29.758,20.172 C29.646,20.508 29.534,20.816 29.422,21.11 C28.778,22.566 27.756,23.686 26.328,24.47 L25.586,23.294 C26.958,22.454 27.882,21.39 28.358,20.13 C28.47,19.766 28.582,19.388 28.68,18.982 L26.146,18.982 L26.146,17.568 L28.932,17.568 C29.016,16.854 29.086,16.084 29.114,15.272 L27.854,15.272 Z" id="跌" fill="#000000" fill-rule="nonzero"></path>
            <path d="M25.568,143.402 L36.474,143.402 L36.474,144.382 L34.136,144.382 L34.136,148.092 L37.202,148.092 L37.202,149.058 L34.136,149.058 L34.136,155.26 L33.114,155.26 L33.114,149.058 L29.068,149.058 C28.942,150.5 28.676,151.69 28.256,152.642 C27.724,153.818 26.842,154.728 25.61,155.372 L25.064,154.504 C26.198,153.86 26.996,153.006 27.444,151.942 C27.738,151.13 27.934,150.178 28.046,149.058 L24.812,149.058 L24.812,148.092 L28.102,148.092 C28.102,147.91 28.116,147.742 28.116,147.602 L28.116,144.382 L25.568,144.382 L25.568,143.402 Z M29.152,144.382 L29.152,147.602 C29.152,147.77 29.138,147.938 29.138,148.092 L33.114,148.092 L33.114,144.382 L29.152,144.382 Z M40.296,142.506 L41.29,142.59 C41.164,143.542 41.038,144.424 40.912,145.236 L42.984,145.236 L42.984,145.824 C42.872,148.092 42.48,150.038 41.808,151.69 C42.466,152.376 43.012,152.992 43.432,153.552 L42.76,154.336 C42.368,153.818 41.906,153.258 41.36,152.67 C40.8,153.734 40.114,154.658 39.274,155.442 L38.644,154.644 C39.47,153.888 40.142,152.992 40.674,151.928 C40.114,151.354 39.512,150.766 38.868,150.15 C39.204,148.932 39.498,147.616 39.75,146.202 L38.63,146.202 L38.63,145.236 L39.918,145.236 C40.058,144.354 40.184,143.444 40.296,142.506 Z M41.094,150.962 C41.626,149.562 41.934,147.98 42.032,146.202 L40.758,146.202 C40.492,147.672 40.226,148.89 39.946,149.856 C40.352,150.234 40.73,150.598 41.094,150.962 Z M50.376,149.45 L50.376,155.414 L49.41,155.414 L49.41,154.574 L45.126,154.574 L45.126,155.414 L44.16,155.414 L44.16,149.45 L50.376,149.45 Z M45.126,153.622 L49.41,153.622 L49.41,150.374 L45.126,150.374 L45.126,153.622 Z M43.614,148.19 L43.46,147.28 C44.272,146.86 45.28,145.292 46.484,142.548 L47.436,142.87 C46.596,144.69 45.77,146.132 44.93,147.21 C46.498,147.112 47.996,146.944 49.41,146.72 C49.018,145.95 48.626,145.236 48.22,144.592 L49.088,144.172 C49.858,145.404 50.586,146.748 51.258,148.218 L50.32,148.666 C50.152,148.288 49.998,147.924 49.83,147.574 C47.968,147.84 45.896,148.05 43.614,148.19 Z" id="开始" fill="#2A3052" fill-rule="nonzero"></path>
            <path d="M251.768,186.6 L251.768,187.552 C250.34,188.07 248.73,188.49 246.91,188.826 L246.784,187.846 C248.688,187.538 250.34,187.118 251.768,186.6 Z M249.178,176.52 L250.116,176.884 C249.402,178.704 248.674,180.16 247.946,181.252 C248.604,181.168 249.262,181.07 249.934,180.958 C250.2,180.454 250.48,179.936 250.76,179.404 L251.642,179.726 C250.368,182.092 249.304,183.772 248.45,184.78 C249.514,184.57 250.564,184.29 251.6,183.94 L251.6,184.836 C250.088,185.354 248.632,185.704 247.232,185.886 L246.966,184.976 C247.148,184.892 247.302,184.794 247.428,184.682 C247.96,184.136 248.618,183.212 249.402,181.896 C248.604,182.022 247.806,182.134 246.994,182.246 L246.742,181.322 C246.896,181.252 247.036,181.126 247.162,180.944 C247.946,179.656 248.618,178.186 249.178,176.52 Z M251.6,178.298 L254.946,178.298 L254.946,176.604 L255.968,176.604 L255.968,178.298 L259.3,178.298 L259.3,179.278 L255.968,179.278 L255.968,181.35 L258.894,181.35 L258.894,182.33 L252.062,182.33 L252.062,181.35 L254.946,181.35 L254.946,179.278 L251.6,179.278 L251.6,178.298 Z M258.488,183.73 L258.488,189.358 L257.508,189.358 L257.508,188.686 L253.504,188.686 L253.504,189.358 L252.51,189.358 L252.51,183.73 L258.488,183.73 Z M253.504,187.734 L257.508,187.734 L257.508,184.682 L253.504,184.682 L253.504,187.734 Z M261.008,178.004 L266.482,178.004 L266.482,176.604 L267.518,176.604 L267.518,178.004 L272.964,178.004 L272.964,178.97 L267.518,178.97 L267.518,180.342 L271.928,180.342 L271.928,184.304 L268.372,184.304 C269.38,185.732 271.088,186.992 273.468,188.112 L272.782,188.98 C270.304,187.594 268.568,186.04 267.56,184.304 L267.518,184.304 L267.518,189.386 L266.482,189.386 L266.482,184.304 L266.44,184.304 C265.376,186.208 263.612,187.776 261.134,189.008 L260.546,188.084 C262.87,187.104 264.564,185.844 265.614,184.304 L262.1,184.304 L262.1,180.342 L266.482,180.342 L266.482,178.97 L261.008,178.97 L261.008,178.004 Z M270.92,183.38 L270.92,181.294 L267.518,181.294 L267.518,183.38 L270.92,183.38 Z M266.482,183.38 L266.482,181.294 L263.108,181.294 L263.108,183.38 L266.482,183.38 Z" id="结束" fill="#2A3052" fill-rule="nonzero"></path>
            <path d="M149.75,163.948 L149.75,170.614 L148.166,170.614 L148.166,165.62 L145.548,165.62 L145.548,170.57 L143.942,170.57 L143.942,163.948 L149.75,163.948 Z M146.912,171.824 L146.78,172.088 C146.318,172.968 145.57,173.628 144.536,174.09 L143.612,172.66 C144.558,172.22 145.196,171.67 145.548,171.032 C145.878,170.328 146.076,169.426 146.12,168.326 L146.12,166.434 L147.572,166.434 L147.572,168.326 C147.55,169.052 147.484,169.712 147.374,170.284 C148.144,170.944 148.804,171.604 149.354,172.264 L148.188,173.452 C147.836,172.924 147.418,172.374 146.912,171.824 Z M137.166,155.126 L145.922,155.126 C145.746,154.752 145.548,154.422 145.35,154.114 L147.66,153.718 C147.814,154.136 147.968,154.598 148.1,155.126 L156.834,155.126 L156.834,156.71 L141.016,156.71 L141.016,157.436 L155.426,157.436 L155.426,158.954 L138.904,158.954 L138.904,156.71 L137.166,156.71 L137.166,155.126 Z M139.52,159.614 L154.414,159.614 L154.414,163.2 L139.52,163.2 L139.52,159.614 Z M152.17,161.77 L152.17,161.044 L141.764,161.044 L141.764,161.77 L152.17,161.77 Z M139.762,168.194 C139.74,168.612 139.718,169.008 139.674,169.382 L141.566,169.382 L141.566,168.194 L139.762,168.194 Z M141.566,166.808 L141.566,165.642 L139.784,165.642 L139.784,166.808 L141.566,166.808 Z M139.476,170.768 C139.212,172.154 138.75,173.342 138.134,174.354 L136.726,173.078 C137.562,171.67 138.002,169.91 138.024,167.754 L138.024,163.97 L143.304,163.97 L143.304,172.616 C143.304,173.672 142.688,174.222 141.478,174.222 L140.664,174.222 L140.18,172.55 C140.444,172.594 140.708,172.638 140.95,172.638 C141.346,172.638 141.566,172.418 141.566,172 L141.566,170.768 L139.476,170.768 Z M155.932,174.002 L155.03,174.002 C154.128,174.002 153.688,173.54 153.688,172.638 L153.688,170.174 L152.742,170.614 C152.522,169.778 152.302,169.008 152.06,168.348 C152.016,169.734 151.928,170.812 151.752,171.582 C151.51,172.462 151.004,173.408 150.234,174.398 L148.87,173.188 C149.508,172.418 149.926,171.714 150.124,171.076 C150.322,170.394 150.432,169.294 150.432,167.754 L150.432,163.948 L155.36,163.948 L155.36,172.088 C155.36,172.286 155.448,172.396 155.646,172.396 L155.668,172.396 C155.734,172.396 155.8,172.286 155.866,172.11 C155.91,171.934 155.932,171.274 155.976,170.152 L157.406,170.658 C157.274,172.154 157.12,173.1 156.944,173.474 C156.746,173.826 156.416,174.002 155.932,174.002 Z M152.06,167.732 L152.94,167.424 C153.226,168.084 153.468,168.788 153.688,169.514 L153.688,165.686 L152.06,165.686 L152.06,167.732 Z" id="赢" fill="#FFFFFF" fill-rule="nonzero"></path>
            <path d="M257.032,125.784 L257.032,136.188 L256.168,136.188 L256.168,135.408 L249.856,135.408 L249.856,136.212 L248.98,136.212 L248.98,125.784 L257.032,125.784 Z M249.856,134.568 L256.168,134.568 L256.168,132.312 L249.856,132.312 L249.856,134.568 Z M249.856,131.52 L256.168,131.52 L256.168,129.408 L249.856,129.408 L249.856,131.52 Z M249.856,128.616 L256.168,128.616 L256.168,126.624 L249.856,126.624 L249.856,128.616 Z M261.292,125.232 L262.144,125.232 L262.144,127.5 L263.536,127.5 L263.536,128.328 L262.144,128.328 L262.144,129.252 C262.732,129.852 263.32,130.524 263.908,131.256 L263.416,131.988 C262.924,131.232 262.504,130.632 262.144,130.176 L262.144,136.188 L261.292,136.188 L261.292,130.212 C260.908,131.34 260.416,132.372 259.816,133.308 L259.444,132.372 C260.308,131.196 260.92,129.84 261.292,128.328 L259.828,128.328 L259.828,127.5 L261.292,127.5 L261.292,125.232 Z M264.832,130.656 L265.624,130.836 C265.24,132.516 264.676,133.956 263.956,135.18 L263.212,134.7 C263.956,133.488 264.496,132.144 264.832,130.656 Z M269.176,130.596 C269.68,131.952 270.112,133.404 270.472,134.94 L269.692,135.288 C269.296,133.62 268.864,132.144 268.396,130.848 L269.176,130.596 Z M266.488,136.068 L265.264,136.068 L265.096,135.264 C265.48,135.288 265.84,135.312 266.188,135.312 C266.512,135.312 266.68,135.132 266.68,134.784 L266.68,129.66 L263.752,129.66 L263.752,128.832 L270.484,128.832 L270.484,129.66 L267.544,129.66 L267.544,135 C267.544,135.708 267.184,136.068 266.488,136.068 Z M264.388,125.916 L269.86,125.916 L269.86,126.732 L264.388,126.732 L264.388,125.916 Z" id="目标-copy" fill="#6D6E71" fill-rule="nonzero"></path>
        </g>
    </g>
</svg>
